hot-tub.svg

<svg fill="currentColor" viewBox="0 0 24 24"><path d="M7 4a2 2 0 0 1 2 2 2 2 0 0 1-2 2 2 2 0 0 1-2-2 2 2 0 0 1 2-2m4.15 8H22v8a2 2 0 0 1-2 2H4a2 2 0 0 1-2-2v-8h3v-.75C5 10 6 9 7.25 9h.03c.34 0 .67.09.96.23.26.12.5.27.69.5l1.4 1.55c.23.26.51.5.82.72M7 20v-6H5v6zm4 0v-6H9v6zm4 0v-6h-2v6zm4 0v-6h-2v6zm-.35-14.14c1.03 1 1.51 2.35 1.3 3.71l-.06.43H18l.09-.59c.15-.79-.09-1.58-.67-2.2l-.07-.06c-1.03-1.01-1.5-2.36-1.3-3.72l.06-.43H18l-.09.59c-.15.79.09 1.58.67 2.2zm-4 0c1.03 1 1.51 2.35 1.3 3.71l-.06.43H14l.09-.59c.15-.79-.09-1.58-.67-2.2l-.07-.06c-1.03-1.01-1.5-2.36-1.3-3.72l.06-.43H14l-.09.59c-.15.79.09 1.58.67 2.2z"/></svg>

<svg  viewBox="0 0 24 24" fill="currentColor"><path  d="M7,4A2,2 0 0,1 9,6A2,2 0 0,1 7,8A2,2 0 0,1 5,6A2,2 0 0,1 7,4M11.15,12H22V20A2,2 0 0,1 20,22H4A2,2 0 0,1 2,20V12H5V11.25C5,10 6,9 7.25,9H7.28C7.62,9 7.95,9.09 8.24,9.23C8.5,9.35 8.74,9.5 8.93,9.73L10.33,11.28C10.56,11.54 10.84,11.78 11.15,12M7,20V14H5V20H7M11,20V14H9V20H11M15,20V14H13V20H15M19,20V14H17V20H19M18.65,5.86C19.68,6.86 20.16,8.21 19.95,9.57L19.89,10H18L18.09,9.41C18.24,8.62 18,7.83 17.42,7.21L17.35,7.15C16.32,6.14 15.85,4.79 16.05,3.43L16.11,3H18L17.91,3.59C17.76,4.38 18,5.17 18.58,5.79L18.65,5.86M14.65,5.86C15.68,6.86 16.16,8.21 15.95,9.57L15.89,10H14L14.09,9.41C14.24,8.62 14,7.83 13.42,7.21L13.35,7.15C12.32,6.14 11.85,4.79 12.05,3.43L12.11,3H14L13.91,3.59C13.76,4.38 14,5.17 14.58,5.79L14.65,5.86Z"/></svg>
